build/location/LocationOutline.svg

<svg xmlns="http://www.w3.org/2000/svg" fill="none" viewBox="0 0 24 24" focusable="false"><path d="M0 0H24V24H0z"/><path fill="#74767B" fill-rule="evenodd" d="M18.8887 9.06708C18.3722 4.83979 14.8962 2.93229 11.6236 3.12992C8.3526 3.32746 5.11021 5.63742 5.05065 9.89087C5.0318 11.2372 5.45973 12.5995 6.07186 13.8584C6.68617 15.1218 7.50498 16.3198 8.31421 17.3491C9.12487 18.3802 9.93599 19.2548 10.5438 19.8712C10.8767 20.2088 11.2147 20.5423 11.5688 20.8577C11.8149 21.0756 12.1856 21.0762 12.4316 20.8583C12.7866 20.5433 13.1242 20.2091 13.4573 19.8712C14.0651 19.2548 14.8763 18.3802 15.6869 17.3491C16.4962 16.3198 17.315 15.1218 17.9293 13.8584C18.5414 12.5995 18.9694 11.2372 18.9505 9.89087C18.947 9.64161 18.9251 9.36477 18.8887 9.06708ZM11.4695 18.9585C11.6733 19.1651 11.8531 19.3414 12.0006 19.483C12.148 19.3414 12.3278 19.1651 12.5316 18.9585C13.1156 18.3663 13.8922 17.5286 14.6649 16.5456C15.4392 15.5609 16.1996 14.4428 16.7602 13.2899C17.323 12.1325 17.6656 10.9781 17.6507 9.90908C17.648 9.71955 17.6309 9.49131 17.5983 9.22474C17.1825 5.82109 14.4409 4.26215 11.702 4.42756C8.96151 4.59305 6.3986 6.47559 6.35052 9.90908C6.33555 10.9781 6.6782 12.1325 7.24098 13.2899C7.80157 14.4428 8.56198 15.5609 9.3362 16.5456C10.109 17.5286 10.8855 18.3663 11.4695 18.9585ZM7.85004 10.1C7.85004 7.80799 9.70806 5.94998 12 5.94998C14.292 5.94998 16.15 7.80799 16.15 10.1C16.15 12.392 14.292 14.25 12 14.25C9.70806 14.25 7.85004 12.392 7.85004 10.1ZM12 7.24998C10.426 7.24998 9.15004 8.52596 9.15004 10.1C9.15004 11.674 10.426 12.95 12 12.95C13.574 12.95 14.85 11.674 14.85 10.1C14.85 8.52596 13.574 7.24998 12 7.24998Z"/></svg>

<svg xmlns="http://www.w3.org/2000/svg" fill="none" viewBox="0 0 24 24" focusable="false"><path fill="#74767B" fill-rule="evenodd" d="M18.88 9.06c-.51-4.23-3.99-6.13-7.26-5.94-3.27.2-6.51 2.51-6.57 6.77-.02 1.34.4 2.7 1.02 3.96.61 1.27 1.43 2.46 2.24 3.49a29.4 29.4 0 0 0 3.25 3.51c.25.22.62.22.87 0 .35-.31.69-.65 1.02-.98.61-.62 1.42-1.49 2.23-2.53.81-1.03 1.63-2.22 2.24-3.49.62-1.26 1.04-2.62 1.03-3.96-.01-.25-.03-.53-.07-.83m-7.42 9.89c.21.21.39.39.54.53l.53-.53c.58-.59 1.36-1.43 2.13-2.41s1.53-2.1 2.1-3.26c.56-1.15.9-2.31.89-3.38-.01-.19-.02-.41-.06-.68-.41-3.4-3.15-4.96-5.89-4.8-2.74.17-5.31 2.05-5.35 5.48-.02 1.07.32 2.23.89 3.38.56 1.16 1.32 2.28 2.09 3.26s1.55 1.82 2.13 2.41M12 5.94c-2.3 0-4.15 1.86-4.15 4.16 0 2.29 1.85 4.15 4.15 4.15 2.29 0 4.15-1.86 4.15-4.15 0-2.3-1.86-4.16-4.15-4.16M9.15 10.1c0-1.58 1.27-2.85 2.85-2.85 1.57 0 2.85 1.27 2.85 2.85 0 1.57-1.28 2.85-2.85 2.85-1.58 0-2.85-1.28-2.85-2.85"/></svg>
